X:1
T:O miei vedovi lumi
T:O miei vedovi lumi
T:Piero Benedetti
T:Source : Musiche di P.Benedetti---Libro secondo---Venetia---R.Amadino---1613. Editor : André Vierendeels (14/03/16).
T:Notes : Original clefs : C4, F4 Figures in BC are notated in original print Composer called "Pietro" in this print
T:©
T:©
C:Piero Benedetti
Z:©
%%score 1 2
L:1/8
Q:1/4=120
M:4/4
K:C
V:1 treble-8 nm="Tenor" snm="T"
V:2 bass nm="BC" snm="BC"
V:1
 z2 G4 G2 | _B6 cd | A4 A4 | z2 e2 fedc | d3 d e3 c | A6 ^G2 | z e ^c3 c d2- | d2 d/c/B/A/ B4 | %8
w: O miei|ve- do- vi|lu- mi,|e co- me con- so-|lar po- trar' il|co- re|si me dal mio|_ bel _ _ _ sol|
 z B d4 B/A/B/G/ | A4 B4 |: e4 z2 e/d/c/B/ | c4 c3 d | d2- ef d4 | z2 BB d2 dB | G6 ^F2 | %15
w: con- vien par- * * *|ti- re,|O mio _ _ _|nuo- vo do-|l- * * re|fe- ro piu ch'il mo-|ri- re,|
 z cde c4 | c2- d/ e/d d4 | d4 z2 ee | e2 d>d c3 F | F/G/A/G/ F/G/A/B/ c/B/c/d/ e/f/g | g3 A A4 | %21
w: ri- no- va pur|in _ _ _ tan-|to i so-|spi- ri nel cor ne|gl'oc- * * * * * * * * * * * * * *|* ch'il pian-|
 G8 :| %22
w: to,|
V:2
 G,,8- | G,,8 |"^#" D,8 | A,,4 F,2 E,2 | G,4 E,4 | F,2 ^C,D, E,4 | E,2 A,4 ^F,2 | ^F,4 G,,4 | %8
 G,4 B,,4 |"^#""^4" D,2 D,2 G,,4 |: C,8 | A,/G,/F,/E,/ F,4 F,,2 | A,4 G,4 | G,,4 B,,4 | ^C,4 D,4 | %15
 A,,4 F,E,/D,/ C,2 | E,4 G,4 | G,,4 E,4 | D,4 F,4 | F,,6 E,,2 | E,,2 ^C,2 D,2 D,2 | G,,8 :| %22

